X: 11905
T: Emma's Valse
R: waltz
M: 3/4
K: Eminor
EG|:B3 B B2|G2 E2 G2|B4B2|G2 E2 EG|
F4 EG|A2 G2 F2|E3 FGA|B4EG|
B3 B B2|G2 E2 G2|B3 B B2|G2 E2 G2|
F4 EG|A2 G2 F2|E3 F GF|1 E4 EG:|2 E2 G2B2||
|:e4 e2|e2 d2 c2|B4B2|B2 A2 G2|
F4 EG|A2 G2 F2|E3 F GA|B4 GB|
e4 e2|e2 d2 c2|B4B2|B2 A2 G2|
F4 EG|A2 G2 F2|E3 F GA|1 E2B2G2:|2 B4 GB||

